svgs/malaa.svg

<?xml version="1.0" encoding="UTF-8" standalone="no"?>
<!-- Created with Inkscape (http://www.inkscape.org/) -->

<svg
   width="192"
   height="192"
   viewBox="0 0 192 192"
   version="1.1"
   id="svg1"
   xmlns="http://www.w3.org/2000/svg"
   xmlns:svg="http://www.w3.org/2000/svg">
  <defs
     id="defs1" />
  <g
     id="g20"
     transform="translate(-0.65030002,-0.002395)"
     style="stroke:#000000;stroke-width:12;stroke-dasharray:none;stroke-opacity:1">
    <path
       style="fill:none;fill-rule:evenodd;stroke:#000000;stroke-width:12;stroke-linecap:round;stroke-linejoin:round;stroke-dasharray:none;stroke-opacity:1;paint-order:stroke fill markers"
       id="rect2903-6"
       width="5.9748821"
       height="38.924492"
       x="-1964.4357"
       y="808.39612"
       d="M 42.661305,22.00241 A 10.998467,11.359048 0 0 1 53.613504,33.409109 V 158.59569 A 11.044605,11.406699 0 0 1 42.568899,170.00238 10.998467,11.359048 0 0 1 31.6167,158.59569 V 33.409109 A 11.044605,11.406699 0 0 1 42.661305,22.00241 Z" />
    <path
       style="fill:none;fill-rule:evenodd;stroke:#000000;stroke-width:12;stroke-linecap:round;stroke-linejoin:round;stroke-dasharray:none;stroke-opacity:1;paint-order:stroke fill markers"
       id="rect2903-6-0"
       width="5.9748821"
       height="38.924492"
       x="-1964.4357"
       y="808.39612"
       d="m 150.7317,22.00241 a 10.998467,11.359048 0 0 1 10.9522,11.406699 V 158.59569 A 11.044605,11.406699 0 0 1 150.63929,170.00237 10.998467,11.359048 0 0 1 139.6871,158.59569 V 33.409109 A 11.044605,11.406699 0 0 1 150.7317,22.00241 Z" />
    <path
       style="fill:none;fill-rule:evenodd;stroke:#000000;stroke-width:12;stroke-linecap:round;stroke-linejoin:round;stroke-dasharray:none;stroke-opacity:1;paint-order:stroke fill markers"
       id="rect2903-6-0-6"
       width="5.9748821"
       height="38.924492"
       x="-1964.4357"
       y="808.39612"
       d="m 96.654096,22.00241 c 6.074264,0.02633 10.977744,5.133305 10.952204,11.406715 V 101.8139 c -1e-5,6.29975 -4.94485,11.40671 -11.044614,11.4067 -6.074248,-0.0263 -10.977717,-5.1333 -10.95219,-11.4067 V 33.409125 c 0,-6.299753 4.944835,-11.406712 11.0446,-11.406715 z" />
  </g>
</svg>

<svg xmlns="http://www.w3.org/2000/svg" width="192" height="192"><g style="stroke:#000;stroke-width:12;stroke-dasharray:none;stroke-opacity:1"><path d="M42.661 22.002A10.998 11.359 0 0 1 53.614 33.41v125.187a11.045 11.407 0 0 1-11.045 11.406 10.998 11.359 0 0 1-10.952-11.406V33.409A11.045 11.407 0 0 1 42.66 22.002M150.732 22.002a10.998 11.359 0 0 1 10.952 11.407v125.187a11.045 11.407 0 0 1-11.045 11.406 10.998 11.359 0 0 1-10.952-11.406V33.409a11.045 11.407 0 0 1 11.045-11.407M96.654 22.002c6.074.027 10.978 5.134 10.952 11.407v68.405c0 6.3-4.945 11.407-11.044 11.407-6.075-.027-10.978-5.134-10.953-11.407V33.409c0-6.3 4.945-11.407 11.045-11.407" style="fill:none;fill-rule:evenodd;stroke:#000;stroke-width:12;stroke-linecap:round;stroke-linejoin:round;stroke-dasharray:none;stroke-opacity:1;paint-order:stroke fill markers" transform="translate(-.65 -.002)"/></g></svg>
